humanity-icon-theme/Humanity/apps/48/preferences-desktop-locale.svg

<?xml version="1.0" encoding="UTF-8" standalone="no"?>
<!-- Created with Inkscape (http://www.inkscape.org/) -->

<svg
   xmlns:svg="http://www.w3.org/2000/svg"
   xmlns="http://www.w3.org/2000/svg"
   xmlns:xlink="http://www.w3.org/1999/xlink"
   version="1.1"
   width="48"
   height="48"
   id="svg4289">
  <defs
     id="defs4291">
    <linearGradient
       id="linearGradient4120">
      <stop
         id="stop4122"
         style="stop-color:white;stop-opacity:1"
         offset="0" />
      <stop
         id="stop4124"
         style="stop-color:white;stop-opacity:0.23529412"
         offset="1" />
    </linearGradient>
    <linearGradient
       id="linearGradient3927">
      <stop
         id="stop3929"
         style="stop-color:#8badea;stop-opacity:1"
         offset="0" />
      <stop
         id="stop3931"
         style="stop-color:#6396cd;stop-opacity:1"
         offset="0.34314865" />
      <stop
         id="stop3933"
         style="stop-color:#3b7caf;stop-opacity:1"
         offset="0.69597507" />
      <stop
         id="stop3935"
         style="stop-color:#206494;stop-opacity:1"
         offset="1" />
    </linearGradient>
    <linearGradient
       x1="-2.8531663"
       y1="19.599176"
       x2="28.05953"
       y2="19.599176"
       id="linearGradient2871"
       xlink:href="#linearGradient3927"
       gradientUnits="userSpaceOnUse"
       gradientTransform="matrix(1.3263159,0,0,1.335413,-7.2158,-2.1729959)"
       spreadMethod="pad" />
    <linearGradient
       id="linearGradient4873">
      <stop
         id="stop4875"
         style="stop-color:white;stop-opacity:1"
         offset="0" />
      <stop
         id="stop4877"
         style="stop-color:white;stop-opacity:0"
         offset="1" />
    </linearGradient>
    <linearGradient
       id="linearGradient2490-182-124">
      <stop
         id="stop2788"
         style="stop-color:#1f4a69;stop-opacity:1"
         offset="0" />
      <stop
         id="stop2790"
         style="stop-color:#4083c2;stop-opacity:1"
         offset="1" />
    </linearGradient>
    <linearGradient
       id="linearGradient8838">
      <stop
         id="stop8840"
         style="stop-color:black;stop-opacity:1"
         offset="0" />
      <stop
         id="stop8842"
         style="stop-color:black;stop-opacity:0"
         offset="1" />
    </linearGradient>
    <linearGradient
       x1="30"
       y1="30"
       x2="-11"
       y2="30"
       id="linearGradient3943"
       xlink:href="#linearGradient2490-182-124"
       gradientUnits="userSpaceOnUse"
       spreadMethod="pad" />
    <linearGradient
       x1="11.015567"
       y1="25.002192"
       x2="25"
       y2="25"
       id="linearGradient3975"
       xlink:href="#linearGradient4120"
       gradientUnits="userSpaceOnUse"
       spreadMethod="pad" />
    <radialGradient
       cx="62.625"
       cy="4.625"
       r="10.625"
       fx="62.625"
       fy="4.625"
       id="radialGradient3991"
       xlink:href="#linearGradient8838"
       gradientUnits="userSpaceOnUse"
       gradientTransform="matrix(2.3529415,0,0,0.51764651,-123.35303,38.105883)" />
    <linearGradient
       x1="1.999663"
       y1="24.491188"
       x2="37.661129"
       y2="24.491188"
       id="linearGradient4007"
       xlink:href="#linearGradient4873"
       gradientUnits="userSpaceOnUse" />
  </defs>
  <path
     d="M 49,40.499999 C 49,43.537568 37.807113,46 24.000001,46 10.192886,46 -1,43.537568 -1,40.499999 -1,37.462434 10.192886,35 24.000001,35 37.807113,35 49,37.462434 49,40.499999 l 0,0 z"
     id="path8836"
     style="opacity:0.3;fill:url(#radialGradient3991);fill-opacity:1;fill-rule:evenodd;stroke:none;stroke-width:0.99999988;marker:none;visibility:visible;display:inline;overflow:visible" />
  <path
     d="M 1.4999998,9.773 C 1.4558056,8.1997527 8.2098196,6.2630766 15.129731,6.5127192 22.049386,6.7623525 23.896807,9.1697349 31.737521,9.5 39,9.8059088 46.544192,6.3000779 46.499998,7.903 l 0,31.028 c 0.0625,2.118722 -6.843024,3.59206 -14.685591,3.569 C 23.971874,42.47694 22.51516,39.634531 15.129731,39.5 7.7484933,39.365545 1.3125,43.4375 1.4999998,40.477 l 0,-30.704 z"
     id="path4319"
     style="fill:url(#linearGradient2871);fill-opacity:1;fill-rule:evenodd;stroke:url(#linearGradient3943);stroke-width:1;stroke-linecap:butt;stroke-linejoin:round;stroke-miterlimit:4;stroke-opacity:1;stroke-dasharray:none" />
  <path
     d="M 2.5000009,10.092654 C 2.4454395,9 9.0259307,7.2247957 15.637144,7.5132736 22.222248,7.8006123 23.980966,10.238782 31.446891,10.5 38.995455,10.764109 45.532323,8 45.499996,8.8610598 l 0,30.2211452 C 45.483094,40 38.992591,41.527182 31.520085,41.5 24.05442,41.472843 22.667173,38.463597 15.637144,38.313745 8.6105909,38.163967 2.5000009,42.066952 2.5000009,39.765229 l 0,-29.672575 z"
     id="path5213"
     style="opacity:0.3;fill:none;stroke:url(#linearGradient4007);stroke-width:1.00000191px;stroke-linecap:butt;stroke-linejoin:miter;stroke-opacity:1" />
  <path
     d="m 24.125,13.03125 c -1.051985,0.149747 -2.093383,0.390399 -3.102689,0.722861 -1.024969,0.391726 -2.000264,0.931311 -2.868983,1.600933 -0.783836,0.610948 -1.532926,1.283833 -2.090828,2.113706 -0.609843,0.777767 -1.075529,1.663755 -1.433117,2.583036 -0.399369,0.957953 -0.497915,2.009761 -0.552184,3.03652 -0.10184,1.102083 0.03242,2.230137 0.360301,3.286694 0.319967,1.064355 0.816861,2.081353 1.465935,2.983866 0.311919,0.420558 0.520642,0.926117 0.534065,1.453634 0.902494,0.02366 1.568809,0.749272 2.241593,1.263772 0.869169,0.550333 1.813065,1.000875 2.792759,1.320595 1.2749,0.469271 2.630569,0.634349 3.973306,0.780699 0.987843,0.107511 1.989817,0.256751 2.980133,0.08958 0.94908,-0.122396 1.910473,-0.270448 2.80363,-0.624047 0.933697,-0.389262 1.773215,-0.977395 2.528982,-1.643624 0.731881,-0.628089 1.289992,-1.42173 1.773347,-2.24948 0.567634,-0.851859 0.881342,-1.837316 1.03125,-2.84375 0.186667,-0.943866 0.183518,-1.941312 0.09048,-2.898268 C 36.486171,22.96602 36.174896,21.957595 35.8125,20.96875 35.43429,19.999745 34.904605,19.097057 34.244344,18.293358 33.582077,17.383351 32.80104,16.57353 32.038307,15.749576 31.350033,15.010747 30.475854,14.446775 29.570956,14.01047 28.718846,13.582494 27.782881,13.376804 26.84375,13.25 25.94613,13.119668 25.034014,12.956218 24.125,13.03125 z m 1.21875,1 c 1.03881,0.05939 2.106648,0.164076 3.074276,0.572011 0.90059,0.407829 1.793937,0.880527 2.531106,1.549439 0.970762,0.814201 1.813506,1.768173 2.547162,2.799235 0.613334,0.763435 1.001901,1.682212 1.378706,2.579315 0.292608,1.036832 0.691788,2.062563 0.726691,3.151384 0.08075,1.077222 -0.08944,2.160422 -0.427278,3.182215 -0.320876,0.919153 -0.833403,1.778879 -1.431547,2.54764 -0.382826,0.508241 -0.880314,0.913056 -1.399116,1.275011 0.04522,-0.936501 -0.124164,-1.873906 -0.01607,-2.807176 0.118866,-1.013949 0.714917,-1.9003 0.859819,-2.911574 0.2179,-0.933566 0.0818,-1.925907 -0.164262,-2.844547 C 32.766046,22.523366 32.822805,21.735501 33.4375,21.375 33.311243,20.547737 32.364918,20.32076 31.927743,19.688973 31.108172,18.947775 30.295747,18.199115 29.528387,17.403387 29.308684,17.228153 29.048864,16.839983 28.84375,16.78125 c 0.09318,0.390004 -0.658196,0.359925 -0.6875,0 -0.789345,-0.495617 -1.737307,-0.608749 -2.646594,-0.670302 -1.155885,-0.063 -2.3208,0.110668 -3.415906,0.482802 -1.001549,0.39849 -1.839959,1.075861 -2.6875,1.71875 -0.8007,0.771671 -1.528921,1.661613 -1.874973,2.734301 -0.382077,0.89446 -0.500089,1.862061 -0.500027,2.823506 -0.03435,1.069409 0.461659,2.024941 0.82935,2.993559 0.368675,0.907746 -0.2764,1.766121 -0.76685,2.479884 -0.542774,-0.878724 -1.196642,-1.717772 -1.5,-2.71875 -0.408882,-1.028323 -0.501151,-2.150245 -0.5625,-3.245307 0.02996,-0.982345 0.202153,-1.968183 0.526559,-2.896869 0.318564,-0.889461 0.776862,-1.731976 1.36548,-2.471984 0.605167,-0.850886 1.392549,-1.554772 2.232961,-2.16709 0.912912,-0.531311 1.829698,-1.116496 2.875,-1.34375 0.959415,-0.316966 1.973571,-0.440701 2.980594,-0.467941 0.11053,-0.0053 0.221323,0.002 0.331906,-8.09e-4 z M 13.625,16 c -0.977737,0.497044 -1.300447,1.620479 -1.681687,2.564392 -0.35623,1.026413 -0.679613,2.075398 -0.789955,3.160422 -0.162281,1.08487 -0.12034,2.182203 -0.0074,3.269288 0.09899,1.18254 0.451262,2.322524 0.822796,3.443398 0.381425,0.958199 0.883415,1.864089 1.416556,2.744052 0.674352,1.066886 1.617739,1.919208 2.520944,2.787198 0.799665,0.718878 1.759489,1.221691 2.695877,1.735725 0.903671,0.483744 1.897226,0.762794 2.888518,1.004124 C 22.17896,36.756503 22.828484,37.308227 23.5,36.875 24.389831,36.413397 23.817894,35.160585 23,35 22.016261,34.762708 21.024393,34.525732 20.082353,34.14586 19.195047,33.79368 18.364363,33.311473 17.59375,32.75 c -0.7577,-0.657244 -1.512878,-1.323369 -2.12726,-2.121824 -0.583707,-0.738296 -1.039134,-1.561335 -1.394987,-2.431578 -0.555615,-1.221509 -0.838312,-2.551256 -0.991774,-3.878867 -0.113115,-0.995799 0.08257,-1.99343 0.218959,-2.977956 0.177638,-0.999924 0.390991,-2.02133 0.920062,-2.902275 0.37464,-0.696182 0.715666,-1.614988 0.0861,-2.277105 C 14.132093,16.00057 13.855004,15.930116 13.625,16 z m 22.71875,0.65625 c -0.980976,0.551256 -0.476805,1.861011 -0.04839,2.634731 0.492392,0.99121 0.852645,2.037019 1.204643,3.084019 0.114647,0.893823 0.424059,1.777769 0.3125,2.6875 -0.117736,0.945352 -0.117773,1.909053 -0.381034,2.835214 -0.155158,0.971976 -0.718024,1.812206 -1.118966,2.696036 -0.471445,0.955814 -1.114694,1.835438 -1.969728,2.482423 -0.759555,0.657392 -1.591427,1.243012 -2.521816,1.632107 -0.900909,0.434841 -1.87142,0.726763 -2.872807,0.790833 -0.902022,0.175857 -2.008741,-0.311698 -2.729399,0.438387 -0.495318,0.93848 0.801839,1.80324 1.651039,1.517492 C 28.917459,37.364502 29.981643,37.35176 31,37.0625 c 0.95616,-0.140236 1.834955,-0.606972 2.65965,-1.091498 1.160496,-0.718627 2.254354,-1.574053 3.11363,-2.642688 C 37.377316,32.618394 37.930415,31.854063 38.3125,31 38.883451,29.858839 39.154647,28.603321 39.46875,27.375 39.606138,26.337651 39.736975,25.297906 39.75,24.25 39.654704,23.171086 39.472431,22.107974 39.1875,21.0625 38.88617,20.006955 38.382538,19.026369 38,18 37.607945,17.438231 37.160648,16.509801 36.34375,16.65625 z M 25.125,17.0625 c 0.920417,-0.02263 1.854914,0.206411 2.660485,0.650038 0.74595,0.358993 1.707002,0.881884 1.620765,1.849962 -0.764802,0.364917 -1.126073,-0.675204 -1.75,-0.90625 -0.813074,-0.456489 -1.761589,-0.556695 -2.677822,-0.577113 -0.886703,-0.03766 -1.778338,0.190459 -2.584673,0.553673 -0.877155,0.403071 -1.6213,1.066829 -2.268755,1.77344 -0.54846,0.608462 -0.659654,1.693844 -1.613273,1.862721 -0.121865,0.03162 -0.404704,0.07565 -0.23393,-0.168402 0.08412,-0.884316 0.670264,-1.598374 1.16935,-2.292316 0.596008,-0.767083 1.398383,-1.34982 2.211574,-1.867701 0.888443,-0.525931 1.928338,-0.794247 2.94973,-0.898797 0.171714,-0.03005 0.344359,0.01943 0.516549,0.02075 z M 25.21875,19 c 0.936657,0.166455 1.875654,0.4423 2.642748,1.020449 0.484535,0.334834 0.451993,0.980461 0.138502,1.417051 -0.535157,0.839013 0.614874,1.385495 0.90625,2.0625 0.251853,0.558833 0.656837,1.035783 0.96875,1.5625 -0.324585,0.924858 -1.11557,1.574211 -1.876237,2.141553 -0.653005,0.527133 -1.477227,0.799056 -2.311263,0.827197 -0.926871,-0.01959 -1.885827,-0.11302 -2.74374,-0.484371 -0.85152,-0.307556 -1.513393,-0.989466 -2.047325,-1.69752 C 20.650579,25.398293 20.040961,24.94288 20.3125,24.375 c 0.935485,0.04041 1.662515,1.009391 2.65625,0.90625 0.404812,-0.750627 0.236142,-1.634566 0.125,-2.4375 -0.604167,0 -1.208333,0 -1.8125,0 0.635417,-1.0625 1.270833,-2.125 1.90625,-3.1875 -0.677083,0.385417 -1.354167,0.770833 -2.03125,1.15625 0.641365,-0.618112 1.365052,-1.180673 2.205973,-1.491261 C 23.968867,19.150632 24.580755,18.965458 25.21875,19 z m 6.5625,3.78125 c 0.193701,0.154718 0.161991,0.598135 0.276174,0.854698 0.106823,0.383693 0.08823,0.796834 -0.02617,1.176552 -0.730024,-0.306638 -1.139862,-1.482323 -0.34375,-1.9375 l 0.0625,-0.09375 0.03125,0 z M 18.125,23.125 c 0.821006,0.396344 1.178555,1.350605 1.125,2.21875 0.0538,0.306548 -0.139002,0.798748 -0.53125,0.625 -0.651258,-0.253814 -0.339815,-1.107522 -0.58173,-1.630407 -0.09055,-0.409905 -0.125723,-0.825509 -0.10577,-1.244593 L 18.125,23.125 z m 4.28125,5.3125 c 1.107237,0.266464 2.208557,0.685347 3.360921,0.65625 0.787961,-0.03432 1.682485,-0.120343 2.326579,0.4375 0.02267,0.53769 -0.711237,0.363714 -1.057225,0.483328 -0.98868,0.07071 -2.008062,0.18085 -2.974025,-0.108328 -0.977894,-0.234271 -2.041146,-0.430403 -2.8125,-1.125 -0.197677,-0.167036 0.272924,-0.171036 0.34375,-0.28125 0.263473,-0.07997 0.540257,-0.11833 0.8125,-0.0625 z m -2.375,0.96875 c 0.917701,0.313393 1.701526,0.96399 2.667198,1.151174 1.028985,0.37115 2.104692,0.580642 3.196769,0.63349 1.06424,0.129733 2.122451,-0.09159 3.12779,-0.414265 1.07277,-0.266347 2.022847,0.431905 2.81614,1.060049 L 31.96875,31.9375 c -0.783747,0.707836 -1.888942,0.876219 -2.875,1.15625 -0.985112,0.248955 -2.018001,0.23846 -3.025975,0.172922 -1.052786,-0.0682 -2.08493,-0.308962 -3.12141,-0.493006 -1.005636,-0.207955 -1.981495,-0.570986 -2.894903,-1.037699 -0.695897,-0.414592 -1.589937,-0.779142 -1.895212,-1.579717 0.583338,-0.258472 1.170147,-0.810429 1.875,-0.75 z"
     id="path5577"
     style="font-size:medium;font-style:normal;font-variant:normal;font-weight:normal;font-stretch:normal;text-indent:0;text-align:start;text-decoration:none;line-height:normal;letter-spacing:normal;word-spacing:normal;text-transform:none;direction:ltr;block-progression:tb;writing-mode:lr-tb;text-anchor:start;opacity:0.8;color:black;fill:url(#linearGradient3975);fill-opacity:1;stroke:none;stroke-width:0.99999994;marker:none;visibility:visible;display:inline;overflow:visible;enable-background:accumulate;font-family:Andale Mono;-inkscape-font-specification:Andale Mono" />
</svg>

<?xml version="1.0" encoding="UTF-8" standalone="no"?>
<!-- Created with Inkscape (http://www.inkscape.org/) -->
<svg id="svg4289" xmlns="http://www.w3.org/2000/svg" height="48" width="48" version="1.1" xmlns:xlink="http://www.w3.org/1999/xlink">
 <defs id="defs4291">
  <linearGradient id="linearGradient2871" y2="19.599" gradientUnits="userSpaceOnUse" x2="28.06" gradientTransform="matrix(1.3263 0 0 1.3354 -7.2158 -2.173)" y1="19.599" x1="-2.8532">
   <stop id="stop3929" style="stop-color:#8badea" offset="0"/>
   <stop id="stop3931" style="stop-color:#6396cd" offset=".34315"/>
   <stop id="stop3933" style="stop-color:#3b7caf" offset=".69598"/>
   <stop id="stop3935" style="stop-color:#206494" offset="1"/>
  </linearGradient>
  <linearGradient id="linearGradient3943" y2="30" gradientUnits="userSpaceOnUse" x2="-11" y1="30" x1="30">
   <stop id="stop2788" style="stop-color:#1f4a69" offset="0"/>
   <stop id="stop2790" style="stop-color:#4083c2" offset="1"/>
  </linearGradient>
  <linearGradient id="linearGradient3975" y2="25" gradientUnits="userSpaceOnUse" x2="25" y1="25.002" x1="11.016">
   <stop id="stop4122" style="stop-color:#fff" offset="0"/>
   <stop id="stop4124" style="stop-color:#fff;stop-opacity:.23529" offset="1"/>
  </linearGradient>
  <radialGradient id="radialGradient3991" gradientUnits="userSpaceOnUse" cy="4.625" cx="62.625" gradientTransform="matrix(2.3529 0 0 .51765 -123.35 38.106)" r="10.625">
   <stop id="stop8840" offset="0"/>
   <stop id="stop8842" style="stop-opacity:0" offset="1"/>
  </radialGradient>
  <linearGradient id="linearGradient4007" y2="24.491" gradientUnits="userSpaceOnUse" x2="37.661" y1="24.491" x1="1.9997">
   <stop id="stop4875" style="stop-color:#fff" offset="0"/>
   <stop id="stop4877" style="stop-color:#fff;stop-opacity:0" offset="1"/>
  </linearGradient>
 </defs>
 <path id="path8836" style="opacity:.3;fill-rule:evenodd;fill:url(#radialGradient3991)" d="m49 40.5c0 3.038-11.193 5.5-25 5.5s-25-2.462-25-5.5 11.193-5.5 25-5.5 25 2.462 25 5.5z"/>
 <path id="path4319" style="stroke-linejoin:round;fill-rule:evenodd;stroke:url(#linearGradient3943);fill:url(#linearGradient2871)" d="m1.5 9.773c-0.0442-1.5732 6.7098-3.5099 13.63-3.2603 6.919 0.2497 8.767 2.657 16.608 2.9873 7.262 0.3059 14.806-3.1999 14.762-1.597v31.028c0.0625 2.1187-6.843 3.5921-14.686 3.569-7.842-0.023-9.299-2.865-16.684-3-7.3815-0.134-13.818 3.938-13.63 0.977v-30.704z"/>
 <path id="path5213" style="opacity:.3;stroke:url(#linearGradient4007);stroke-width:1px;fill:none" d="m2.5 10.093c-0.0546-1.093 6.5259-2.8682 13.137-2.5797 6.585 0.2873 8.344 2.7257 15.81 2.9867 7.548 0.264 14.085-2.5 14.053-1.6389v30.221c-0.017 0.918-6.507 2.445-13.98 2.418-7.466-0.027-8.853-3.036-15.883-3.186-7.0264-0.15-13.137 3.753-13.137 1.451v-29.673z"/>
 <path id="path5577" style="opacity:.8;block-progression:tb;text-indent:0;color:black;text-transform:none;fill:url(#linearGradient3975)" d="m24.125 13.031c-1.052 0.14975-2.0934 0.3904-3.1027 0.72286-1.025 0.39173-2.0003 0.93131-2.869 1.6009-0.78384 0.61095-1.5329 1.2838-2.0908 2.1137-0.60984 0.77777-1.0755 1.6638-1.4331 2.583-0.39937 0.95795-0.49792 2.0098-0.55218 3.0365-0.10184 1.1021 0.03242 2.2301 0.3603 3.2867 0.31997 1.0644 0.81686 2.0814 1.4659 2.9839 0.31192 0.42056 0.52064 0.92612 0.53406 1.4536 0.90249 0.02366 1.5688 0.74927 2.2416 1.2638 0.86917 0.55033 1.8131 1.0009 2.7928 1.3206 1.2749 0.46927 2.6306 0.63435 3.9733 0.7807 0.98784 0.10751 1.9898 0.25675 2.9801 0.08958 0.94908-0.1224 1.9105-0.27045 2.8036-0.62405 0.9337-0.38926 1.7732-0.9774 2.529-1.6436 0.73188-0.62809 1.29-1.4217 1.7733-2.2495 0.56763-0.85186 0.88134-1.8373 1.0312-2.8438 0.18667-0.94387 0.18352-1.9413 0.09048-2.8983-0.166-1.043-0.477-2.051-0.84-3.04-0.378-0.969-0.907-1.872-1.568-2.676-0.662-0.91-1.443-1.719-2.206-2.543-0.688-0.739-1.562-1.303-2.467-1.74-0.852-0.428-1.788-0.633-2.727-0.76-0.898-0.13-1.81-0.294-2.719-0.219zm1.2188 1c1.0388 0.05939 2.1066 0.16408 3.0743 0.57201 0.90059 0.40783 1.7939 0.88053 2.5311 1.5494 0.97076 0.8142 1.8135 1.7682 2.5472 2.7992 0.61333 0.76344 1.0019 1.6822 1.3787 2.5793 0.29261 1.0368 0.69179 2.0626 0.72669 3.1514 0.08075 1.0772-0.08944 2.1604-0.42728 3.1822-0.32088 0.91915-0.8334 1.7789-1.4315 2.5476-0.38283 0.50824-0.88031 0.91306-1.3991 1.275 0.04522-0.9365-0.12416-1.8739-0.01607-2.8072 0.11887-1.0139 0.71492-1.9003 0.85982-2.9116 0.2179-0.93357 0.0818-1.9259-0.16426-2.8445-0.258-0.601-0.201-1.388 0.414-1.749-0.127-0.827-1.073-1.054-1.51-1.686-0.82-0.741-1.632-1.49-2.4-2.286-0.219-0.175-0.479-0.563-0.684-0.622 0.09318 0.39-0.6582 0.35992-0.6875 0-0.78934-0.49562-1.7373-0.60875-2.6466-0.6703-1.1559-0.063-2.3208 0.11067-3.4159 0.4828-1.0015 0.39849-1.84 1.0759-2.6875 1.7188-0.8007 0.77167-1.5289 1.6616-1.875 2.7343-0.38208 0.89446-0.50009 1.8621-0.50003 2.8235-0.03435 1.0694 0.46166 2.0249 0.82935 2.9936 0.36868 0.90775-0.2764 1.7661-0.76685 2.4799-0.54277-0.87872-1.1966-1.7178-1.5-2.7188-0.40888-1.0283-0.50115-2.1502-0.5625-3.2453 0.02996-0.98234 0.20215-1.9682 0.52656-2.8969 0.31856-0.88946 0.77686-1.732 1.3655-2.472 0.60517-0.85089 1.3925-1.5548 2.233-2.1671 0.91291-0.53131 1.8297-1.1165 2.875-1.3438 0.95942-0.31697 1.9736-0.4407 2.9806-0.46794 0.11053-0.0053 0.22132 0.002 0.33191-0.000809zm-11.719 1.969c-0.97774 0.49704-1.3004 1.6205-1.6817 2.5644-0.35623 1.0264-0.67961 2.0754-0.78996 3.1604-0.16228 1.0849-0.12034 2.1822-0.0074 3.2693 0.09899 1.1825 0.45126 2.3225 0.8228 3.4434 0.38142 0.9582 0.88342 1.8641 1.4166 2.7441 0.67435 1.0669 1.6177 1.9192 2.5209 2.7872 0.79966 0.71888 1.7595 1.2217 2.6959 1.7357 0.90367 0.48374 1.8972 0.76279 2.8885 1.0041 0.688 0.048 1.337 0.599 2.009 0.166 0.89-0.462 0.318-1.714-0.5-1.875-0.984-0.237-1.976-0.474-2.918-0.854-0.887-0.352-1.718-0.835-2.488-1.396-0.7577-0.65724-1.5129-1.3234-2.1273-2.1218-0.58371-0.7383-1.0391-1.5613-1.395-2.4316-0.55562-1.2215-0.83831-2.5513-0.99177-3.8789-0.11312-0.9958 0.08257-1.9934 0.21896-2.978 0.17764-0.99992 0.39099-2.0213 0.92006-2.9023 0.37464-0.69618 0.71567-1.615 0.0861-2.2771-0.173-0.16-0.45-0.231-0.68-0.161zm22.719 0.65625c-0.98098 0.55126-0.4768 1.861-0.04839 2.6347 0.49239 0.99121 0.85264 2.037 1.2046 3.084 0.11465 0.89382 0.42406 1.7778 0.3125 2.6875-0.11774 0.94535-0.11777 1.9091-0.38103 2.8352-0.15516 0.97198-0.71802 1.8122-1.119 2.696-0.47144 0.95581-1.1147 1.8354-1.9697 2.4824-0.75956 0.65739-1.5914 1.243-2.5218 1.6321-0.90091 0.43484-1.8714 0.72676-2.8728 0.79083-0.90202 0.17586-2.0087-0.3117-2.7294 0.43839-0.49532 0.93848 0.80184 1.8032 1.651 1.5175 1.047-0.089 2.112-0.102 3.13-0.392 0.95616-0.14024 1.835-0.60697 2.6596-1.0915 1.1605-0.71863 2.2544-1.5741 3.1136-2.6427 0.604-0.71 1.157-1.474 1.539-2.328 0.571-1.141 0.843-2.397 1.157-3.625 0.137-1.037 0.268-2.077 0.281-3.125-0.095-1.079-0.278-2.142-0.562-3.188-0.302-1.055-0.805-2.036-1.188-3.062-0.392-0.562-0.839-1.49-1.656-1.344zm-11.219 0.406c0.92042-0.02263 1.8549 0.20641 2.6605 0.65004 0.74595 0.35899 1.707 0.88188 1.6208 1.85-0.7648 0.36492-1.1261-0.6752-1.75-0.90625-0.81307-0.45649-1.7616-0.5567-2.6778-0.57711-0.8867-0.03766-1.7783 0.19046-2.5847 0.55367-0.87716 0.40307-1.6213 1.0668-2.2688 1.7734-0.54846 0.60846-0.65965 1.6938-1.6133 1.8627-0.12186 0.03162-0.4047 0.07565-0.23393-0.1684 0.08412-0.88432 0.67026-1.5984 1.1694-2.2923 0.59601-0.76708 1.3984-1.3498 2.2116-1.8677 0.88844-0.52593 1.9283-0.79425 2.9497-0.8988 0.17171-0.03005 0.34436 0.01943 0.51655 0.02075zm0.094 1.938c0.93666 0.16646 1.8757 0.4423 2.6427 1.0204 0.48454 0.33483 0.45199 0.98046 0.1385 1.4171-0.53516 0.83901 0.61487 1.3855 0.90625 2.0625 0.25185 0.55883 0.65684 1.0358 0.96875 1.5625-0.32458 0.92486-1.1156 1.5742-1.8762 2.1416-0.653 0.52713-1.4772 0.79906-2.3113 0.8272-0.92687-0.01959-1.8858-0.11302-2.7437-0.48437-0.85152-0.30756-1.5134-0.98947-2.0473-1.6975-0.246-0.451-0.856-0.906-0.585-1.474 0.93548 0.04041 1.6625 1.0094 2.6562 0.90625 0.40481-0.75063 0.23614-1.6346 0.125-2.4375h-1.8125l1.9062-3.1875c-0.67708 0.38542-1.3542 0.77083-2.0312 1.1562 0.64136-0.61811 1.3651-1.1807 2.206-1.4913 0.607-0.17 1.219-0.356 1.857-0.321zm6.5625 3.7812c0.1937 0.15472 0.16199 0.59814 0.27617 0.8547 0.10682 0.38369 0.08823 0.79683-0.02617 1.1766-0.73002-0.30664-1.1399-1.4823-0.34375-1.9375l0.0625-0.09375h0.03125zm-13.657 0.344c0.82101 0.39634 1.1786 1.3506 1.125 2.2188 0.0538 0.30655-0.139 0.79875-0.53125 0.625-0.65126-0.25381-0.33982-1.1075-0.58173-1.6304-0.09055-0.4099-0.12572-0.82551-0.10577-1.2446l0.094 0.031zm4.2812 5.3125c1.1072 0.26646 2.2086 0.68535 3.3609 0.65625 0.78796-0.03432 1.6825-0.12034 2.3266 0.4375 0.02267 0.53769-0.71124 0.36371-1.0572 0.48333-0.98868 0.07071-2.0081 0.18085-2.974-0.10833-0.97789-0.23427-2.0411-0.4304-2.8125-1.125-0.19768-0.16704 0.27292-0.17104 0.34375-0.28125 0.26347-0.07997 0.54026-0.11833 0.8125-0.0625zm-2.375 0.96875c0.9177 0.31339 1.7015 0.96399 2.6672 1.1512 1.029 0.37115 2.1047 0.58064 3.1968 0.63349 1.0642 0.12973 2.1225-0.09159 3.1278-0.41426 1.0728-0.26635 2.0228 0.4319 2.8161 1.06l0.13 0.101c-0.78375 0.70784-1.8889 0.87622-2.875 1.1562-0.98511 0.24896-2.018 0.23846-3.026 0.17292-1.0528-0.0682-2.0849-0.30896-3.1214-0.49301-1.0056-0.20796-1.9815-0.57099-2.8949-1.0377-0.6959-0.41459-1.5899-0.77914-1.8952-1.5797 0.58334-0.25847 1.1701-0.81043 1.875-0.75z"/>
</svg>
